X:242
T: SAG MIR DAS WORT
N: B0728
O: Europa, Mitteleuropa, Deutschland; Irland
R: Liebes - Lied, Leid, Klage
M: 4/4
L: 1/8
K: F
 | F2FGA2AB | c2dcA2z2 |
c2BAG4 | B2AGF4 |
F2FGA2AB | c2dcA2z2 |
c2BAG4 | B2AGF4 |
c2BAG2CC | B2AGF2z2 |
c2BAG2CC | B2AGF2z2 |
F2FGA2AB | c2dcA2z2 |
c2BAG2AG | F4z4

@@@ Tune index: 2460
